X: 1
T: Every Midsummer's Night
M: 6/8
L: 1/8
R: jig
K: Dmaj
|:AAA AAA|B2B A2A|G2G GFE|F2G A2A|
B2B B2G| A2A A3|G2G GFE|D6:|
